_site/images/logos/visual-studio.svg

<svg height="37" viewBox="0 0 36 37" width="36" xmlns="http://www.w3.org/2000/svg"><path d="m35.9559556 3.44856081-8.5015226-3.44856081-14.9750796 14.5665363-9.04750415-6.88999427-3.43184925 1.72252877.04404435 18.2018584 3.43184926 1.7225288 9.04750409-6.8899943 14.9750797 14.5665363 8.5015226-3.4485608zm-31.62203951 18.90662259v-7.710246l4.24570705 3.8550626h.04404435zm22.26766901 2.5641627-8.5354584-6.4193461h-.0440444l8.5795028-6.4193461z" fill="#fff" opacity=".917876"/></svg>

<?xml version="1.0" encoding="UTF-8"?>
<svg width="36px" height="37px" viewBox="0 0 36 37" version="1.1" xmlns="http://www.w3.org/2000/svg" xmlns:xlink="http://www.w3.org/1999/xlink">
    <!-- Generator: Sketch 52.6 (67491) - http://www.bohemiancoding.com/sketch -->
    <title>visual-studio</title>
    <desc>Created with Sketch.</desc>
    <g id="Landing-page" stroke="none" stroke-width="1" fill="none" fill-rule="evenodd" opacity="0.917875744">
        <g id="1.1--Home" transform="translate(-987.000000, -761.000000)" fill="#FFFFFF" fill-rule="nonzero">
            <g id="header" transform="translate(0.000000, 100.000000)">
                <g id="Slogan">
                    <g id="Component-/-Background">
                        <g>
                            <g id="Group-34" transform="translate(729.000000, 615.000000)">
                                <g id="Group-32" transform="translate(0.000000, 44.000000)">
                                    <g id="visual-studio" transform="translate(258.000000, 2.000000)">
                                        <path d="M35.9559556,3.44856081 L27.454433,0 L12.4793534,14.5665363 L3.43184925,7.67654203 L0,9.3990708 L0.0440443519,27.6009292 L3.47589361,29.323458 L12.5233977,22.4334637 L27.4984774,37 L36,33.5514392 L35.9559556,3.44856081 Z M4.33391609,22.3551834 L4.33391609,14.6449374 L8.57962314,18.5 L8.62366749,18.5 L4.33391609,22.3551834 Z M26.6015851,24.9193461 L18.0661267,18.5 L18.0220823,18.5 L26.6015851,12.0806539 L26.6015851,24.9193461 Z" id="Shape"></path>
                                    </g>
                                </g>
                            </g>
                        </g>
                    </g>
                </g>
            </g>
        </g>
    </g>
</svg>
